X:1
T:James Gibb editions
T:Psalm 88 (Becker) - Schütz
%%score [ ( 1 2 ) ( 3 4 ) ]
L:1/8
Q:1/4=98
M:2/2
K:C
V:1 treble nm="Soprano Alto"
V:2 treble 
V:3 bass nm="Tenor Bass"
V:4 bass 
V:1
"^Cornelius Becker\n(1561-1604)""^Psalm 88, SWV 185""^Heinrich Schütz\n(1585-1672)" A4 F4 | %1
w: ~Herr, Gott,|
w: neig dein|
 c2 A4 G2 | F2 G2 E4 | F4 G4 | A2 c4 B2 | A4 G4 :|[M:2/2] B4 A4 | G2 A4 B2 | c2 B2 A4 | A4 c4 | %10
w: mein Hei- land,|Nacht und Tag|schrei ich|zu dir mit|Fle- hen,|||||
w: Oh- ren zu|mei- ner Klag,|laß dir|zu Her- zen|ge- hen|||||
 c2 _B4 A2 | !courtesy!=G4 F4 | z2 A4 _B2 | G4 ^F4 | z2 ^F2 G2 G2 | A2 A2 !courtesy!=B4 | c4 A4 | %17
w: ||und mein|Le- ben,|ist na- he|bei der Höll,|mein Geist|
w: |||||||
 G2 !courtesy!=F4 G2 | E8 | D8 |] %20
w: muß ich auf-|ge-|ben.|
w: |||
V:2
 D4 D4 | E2 F4 E2 | D2 D2 ^C4 | D4 D4 | F2 G4 G2 | ^F4 G4 :|[M:2/2] G4 ^F4 | E2 ^F4 ^G2 | %8
w: ||||||mein G'bet,|Herr, mein be-|
 A2 ^G2 A4 | E4 A4 | A2 G4 F2 | (F2 E2) F4 | z2 F2 D4 | E4 A4 | z2 D2 E2 D2 | E2 ^F2 G4 | %16
w: trüb- te Seel|in ei-|tel Jam- mer|schwe\- * bet,|und mein|Le- ben,|ist na- he|bei der Höll,|
 G4 !courtesy!=F4 | E2 D4 D2- | D2 (^CB, C4) | D8 |] %20
w: mein Geist|muß ich auf\-|* ge\- * *|ben.|
V:3
 F,4 A,4 | A,2 C4 C2 | A,2 _B,2 A,4 | A,4 !courtesy!=B,4 | C2 E4 D2 | D4 D4 :|[M:2/2] D4 D4 | %7
w: |||||||
 B,2 D4 D2 | E2 E2 E4 | C4 F4 | F2 D4 C2 | C4 C4 | %12
w: |||||
 z2 C2 F2"^2. Ich bin geachtet denen gleich, die zu der Höllen fahren,\nkein Mensch mir Armen Hülf erzeigt, ich bin verlassen gare,\nals wenn ich mit erschlagen wär, gefahren tief hinabe in mein Grabe, \ndu denkest mein nicht mehr, zeuchst die Hand von mir abe.\n\n6.  Ich schrei zu dir, Herr, laß vor dich früh kommen mein Gebete,\nach, Herr, willt du verstoßen mich und meine Seel nicht retten?\nVerbirg dein Antlitz nicht vor mir, ich leid Elend und Plage, schmerzlich klage, \nweil du mich stößt von dir, ich muß gar schier verzagen.\n\n7. Dein Grimm geht her gewaltiglich, dein Schrecken drückt mich sehre, \ndie Feinde rings umgeben mich wie Wasserfluten schwere, \ndu machst, daß meine nächsten Freund mich ganz und gar verlassen und mich hassen \nall, die verwandt mir seind mein Leid ist über Maßen." (D2- | %13
w: und mein Le\-|
 D2 ^C2) D4 | z2 A,2 !courtesy!=C2 D2 | C2 D2 D4 | E4 C4 | C2 A,4 _B,2 | A,8 | A,8 |] %20
w: * * ben,|ist na- he|bei der Höll,|mein Geist|muß ich auf-|ge-|ben.|
V:4
 D,4 D,4 | A,2 F,4 C,2 | D,2 G,,2 A,,4 | D,4 G,4 | F,2 C,4 G,2 | D,4 G,4 :|[M:2/2] G,4 D,4 | %7
w: |||||||
 E,2 D,4 B,,2 | A,,2 E,2 A,,4 | A,4 F,4 | F,2 G,4 A,2 | C4 F,4 | z2 F,4 G,2 | E,4 D,4 | %14
w: |||||und mein|Le- ben,|
 z2 D,2 C,2 B,,2 | A,,2 D,2 G,,4 | C,4 F,4 | C,2 D,4 G,,2 | A,,8 | D,8 |] %20
w: ist na- he|bei der Höll,|mein Geist|muß ich auf-|ge-|ben.|

